X: 10552
T: Dornoch Links
R: march
M: 
K: Amajor
M:4/4
|:af|e2 A2 c2 Bc|e2 A2- A2 af|e2 A2 cd/c/ Bc|fB- Ba/f/|
e2 2A c3 B|AB ce a3c|d3 f Be ed|c2 A2 A2:|
|:ce|a3 g f2 (3efg|a2 ed c2 A2|a3 e ef ed|c2 B2 B2 (3cde|
a2 af e2 fg|a2 ed c3 A|d2 df BE ed|c2 A2 A2:|

